material/.icons/material/bell-remove-outline.svg

<svg xmlns="http://www.w3.org/2000/svg" viewBox="0 0 24 24"><path d="M20.12 14.46L18 16.59l-2.12-2.13-1.42 1.42L16.59 18l-2.13 2.12 1.42 1.42L18 19.41l2.12 2.13 1.42-1.42L19.41 18l2.13-2.12M12 2c-1.1 0-2 .9-2 2v.29C7.12 5.14 5 7.82 5 11v6l-2 2v1h9.35a5.93 5.93 0 01-.35-2H7v-7a5 5 0 015-5 5 5 0 015 5v1.09c.33-.05.66-.09 1-.09.34 0 .67.03 1 .09V11c0-3.18-2.12-5.86-5-6.71V4a2 2 0 00-2-2m-2 19a2 2 0 003.65 1.13c-.32-.34-.6-.72-.84-1.13z"/></svg>

<?xml version="1.0" encoding="UTF-8"?><!DOCTYPE svg PUBLIC "-//W3C//DTD SVG 1.1//EN" "http://www.w3.org/Graphics/SVG/1.1/DTD/svg11.dtd"><svg xmlns="http://www.w3.org/2000/svg" xmlns:xlink="http://www.w3.org/1999/xlink" version="1.1" id="mdi-bell-remove-outline" width="24" height="24" viewBox="0 0 24 24"><path d="M20.12 14.46L18 16.59L15.88 14.46L14.46 15.88L16.59 18L14.46 20.12L15.88 21.54L18 19.41L20.12 21.54L21.54 20.12L19.41 18L21.54 15.88M12 2C10.9 2 10 2.9 10 4C10 4.1 10 4.19 10 4.29C7.12 5.14 5 7.82 5 11V17L3 19V20H12.35C12.12 19.36 12 18.68 12 18H7V11A5 5 0 0 1 12 6A5 5 0 0 1 17 11V12.09C17.33 12.04 17.66 12 18 12C18.34 12 18.67 12.03 19 12.09V11C19 7.82 16.88 5.14 14 4.29C14 4.19 14 4.1 14 4C14 2.9 13.11 2 12 2M10 21C10 22.11 10.9 23 12 23C12.66 23 13.28 22.67 13.65 22.13C13.33 21.79 13.05 21.41 12.81 21Z" /></svg>
